src/images/svg/be-square/tech-experience.svg

<svg width="64" height="64" viewBox="0 0 64 64" fill="none" xmlns="http://www.w3.org/2000/svg">
<path fill-rule="evenodd" clip-rule="evenodd" d="M43.9141 8V6C43.9141 5.73478 43.8087 5.48043 43.6212 5.29289C43.4336 5.10536 43.1793 5 42.9141 5C42.6488 5 42.3945 5.10536 42.207 5.29289C42.0194 5.48043 41.9141 5.73478 41.9141 6V8C41.9141 8.26522 42.0194 8.51957 42.207 8.70711C42.3945 8.89464 42.6488 9 42.9141 9C43.1793 9 43.4336 8.89464 43.6212 8.70711C43.8087 8.51957 43.9141 8.26522 43.9141 8ZM51.5886 26.2943C50.8543 27.6065 49.8437 28.7435 48.6267 29.6266C48.5581 29.6779 48.5026 29.7447 48.465 29.8216C48.4273 29.8985 48.4085 29.9833 48.4102 30.0689V31.4034C48.9069 31.6898 49.3111 32.1127 49.5748 32.6218C49.8386 33.131 49.9508 33.7051 49.8982 34.2761C49.8455 34.8471 49.6303 35.391 49.2779 35.8434C48.9256 36.2957 48.4509 36.6376 47.9102 36.8284V38.0004C47.9093 38.7958 47.5929 39.5583 47.0305 40.1207C46.4681 40.6831 45.7055 40.9995 44.9102 41.0004H40.9102C40.1148 40.9995 39.3523 40.6832 38.7898 40.1208C38.2274 39.5583 37.9111 38.7958 37.9102 38.0004V36.829C37.3694 36.6382 36.8948 36.2964 36.5424 35.844C36.1901 35.3916 35.9748 34.8477 35.9222 34.2767C35.8696 33.7057 35.9818 33.1316 36.2455 32.6225C36.5092 32.1133 36.9134 31.6904 37.4102 31.404V30.069C37.412 29.9839 37.3937 29.8995 37.3565 29.8229C37.3194 29.7463 37.2646 29.6796 37.1967 29.6283C35.8691 28.6719 34.7881 27.4135 34.0428 25.9569C33.2974 24.5003 32.9092 22.8874 32.9102 21.2512C32.8997 15.6768 37.3217 11.0788 42.7676 11.0012C44.0791 10.9808 45.3815 11.2236 46.5976 11.7151C47.8138 12.2066 48.9191 12.9369 49.8482 13.8628C50.9146 14.9229 51.738 16.202 52.2614 17.6116C52.7847 19.0213 52.9957 20.5278 52.8795 22.0269C52.7633 23.5261 52.3229 24.9821 51.5886 26.2943ZM42.7967 13.0012C38.4398 13.0633 34.9022 16.7627 34.9107 21.2476C34.9088 22.5659 35.2204 23.8658 35.8199 25.0399C36.4194 26.2141 37.2895 27.2288 38.3584 28.0004C38.6856 28.2368 38.9517 28.5477 39.1347 28.9075C39.3177 29.2672 39.4123 29.6654 39.4107 30.069V31.0004H46.4107V30.0694C46.4093 29.6654 46.5042 29.2669 46.6875 28.9068C46.8708 28.5468 47.1373 28.2357 47.4648 27.9991C48.4443 27.2855 49.2574 26.368 49.848 25.3097C50.4387 24.2515 50.7927 23.0777 50.8859 21.8694C50.979 20.6611 50.809 19.4469 50.3875 18.3107C49.966 17.1744 49.3031 16.1431 48.4446 15.2878C46.9755 13.8229 44.9855 13.0003 42.9108 13.0003C42.8917 13.0003 42.8724 13.0005 42.8533 13.0008C42.8343 13.001 42.8154 13.0012 42.7967 13.0012ZM40.9107 39.0004H44.9107C45.1758 39.0001 45.43 38.8947 45.6175 38.7072C45.8049 38.5197 45.9104 38.2655 45.9107 38.0004V37.0004H39.9107V38.0004C39.911 38.2655 40.0164 38.5197 40.2039 38.7072C40.3914 38.8947 40.6456 39.0001 40.9107 39.0004ZM38.9107 35.0004H46.9107C47.1759 35.0004 47.4302 34.895 47.6178 34.7075C47.8053 34.52 47.9107 34.2656 47.9107 34.0004C47.9107 33.7352 47.8053 33.4808 47.6178 33.2933C47.4302 33.1058 47.1759 33.0004 46.9107 33.0004H38.9107C38.6455 33.0004 38.3911 33.1058 38.2036 33.2933C38.016 33.4808 37.9107 33.7352 37.9107 34.0004C37.9107 34.2656 38.016 34.52 38.2036 34.7075C38.3911 34.895 38.6455 35.0004 38.9107 35.0004ZM46.1728 18.4952C45.7217 17.9838 45.1607 17.5811 44.5319 17.3173L44.5315 17.3172C44.2861 17.2167 44.0905 17.0229 43.988 16.7783C43.8854 16.5338 43.8842 16.2585 43.9846 16.013C44.085 15.7675 44.2788 15.572 44.5234 15.4694C44.768 15.3668 45.0433 15.3656 45.2888 15.4661C46.1985 15.846 47.0104 16.4267 47.6638 17.1649C48.3172 17.9031 48.7951 18.7795 49.0618 19.7285C49.1292 19.9824 49.094 20.2526 48.9639 20.4807C48.8337 20.7088 48.619 20.8766 48.3662 20.9477C48.1134 21.0189 47.8427 20.9877 47.6127 20.8609C47.3826 20.7342 47.2117 20.522 47.1368 20.2703C46.9535 19.6135 46.6239 19.0066 46.1728 18.4952ZM33.0722 13.4565C32.9055 13.571 32.7079 13.6323 32.5057 13.6322C32.2585 13.6324 32.0201 13.5407 31.8368 13.375L30.3506 12.0375C30.1534 11.86 30.0348 11.6115 30.0209 11.3466C30.007 11.0817 30.0989 10.8221 30.2763 10.625C30.4538 10.4278 30.7023 10.3093 30.9672 10.2953C31.2321 10.2814 31.4916 10.3733 31.6888 10.5507L33.175 11.889C33.3254 12.0243 33.4311 12.2021 33.4784 12.3988C33.5256 12.5955 33.5121 12.8018 33.4395 12.9907C33.367 13.1795 33.239 13.3419 33.0722 13.4565ZM28.8876 22.4687L26.8986 22.6779C26.7673 22.6907 26.6399 22.7294 26.5236 22.7918C26.4073 22.8541 26.3046 22.9388 26.2212 23.041C26.1378 23.1432 26.0755 23.2609 26.0378 23.3873C26.0001 23.5138 25.9878 23.6464 26.0016 23.7776C26.0154 23.9088 26.055 24.0359 26.1181 24.1517C26.1813 24.2675 26.2667 24.3697 26.3695 24.4524C26.4723 24.535 26.5904 24.5965 26.7171 24.6333C26.8438 24.6701 26.9765 24.6815 27.1076 24.6668L29.0968 24.4577C29.3593 24.4285 29.5996 24.2966 29.7653 24.0908C29.9309 23.885 30.0084 23.622 29.9807 23.3593C29.9531 23.0966 29.8226 22.8555 29.6178 22.6886C29.413 22.5217 29.1505 22.4427 28.8876 22.4687ZM58.7185 24.6671L56.7295 24.458C56.5984 24.445 56.471 24.4062 56.3549 24.3438C56.2388 24.2814 56.1361 24.1967 56.0529 24.0945C55.9696 23.9923 55.9074 23.8746 55.8697 23.7483C55.8321 23.622 55.8198 23.4894 55.8336 23.3583C55.8474 23.2272 55.887 23.1001 55.95 22.9844C56.0131 22.8686 56.0985 22.7665 56.2012 22.6838C56.3039 22.6012 56.4219 22.5396 56.5485 22.5028C56.675 22.4659 56.8077 22.4544 56.9387 22.469L58.9278 22.6781C59.1905 22.7071 59.4312 22.8389 59.597 23.0448C59.7629 23.2506 59.8405 23.5138 59.8128 23.7767C59.7852 24.0397 59.6545 24.2809 59.4494 24.4478C59.2444 24.6147 58.9816 24.6935 58.7185 24.6671ZM53.9846 13.3757L55.4708 12.0382C55.6679 11.8607 55.7864 11.6122 55.8003 11.3473C55.8141 11.0824 55.7222 10.8229 55.5448 10.6258C55.3673 10.4287 55.1188 10.3102 54.8539 10.2963C54.589 10.2824 54.3295 10.3743 54.1324 10.5518L52.6463 11.8897C52.4528 12.0681 52.3375 12.3156 52.3253 12.5785C52.3131 12.8414 52.405 13.0985 52.5812 13.294C52.7573 13.4896 53.0034 13.6078 53.2661 13.6231C53.5289 13.6384 53.787 13.5495 53.9846 13.3757ZM44.4267 53.2134H55.78C56.4746 53.2142 57.1406 53.4905 57.6317 53.9816C58.1229 54.4728 58.3992 55.1387 58.4 55.8334V57.58C58.3992 58.2746 58.1229 58.9406 57.6317 59.4318C57.1406 59.9229 56.4746 60.1992 55.78 60.2H33.7461C33.5004 60.2 32.3872 59.9926 24.5072 58.4369C20.5676 57.6591 16.1108 56.7792 15.5659 56.7067H12.9867V57.58C12.9867 57.8116 12.8947 58.0338 12.7309 58.1976C12.5671 58.3613 12.345 58.4534 12.1133 58.4534H6.87333C6.64171 58.4534 6.41958 58.3613 6.25579 58.1976C6.09201 58.0338 6 57.8116 6 57.58V38.3667C6 38.1351 6.09201 37.9129 6.25579 37.7492C6.41958 37.5854 6.64171 37.4934 6.87333 37.4934H12.1133C12.345 37.4934 12.5671 37.5854 12.7309 37.7492C12.8947 37.9129 12.9867 38.1351 12.9867 38.3667V39.24H19.9733C21.9711 39.24 24.8975 40.6176 28.6716 43.3346C31.0355 45.0367 32.969 46.7146 33.5099 47.1924L42.0576 49.7568C42.1057 49.7713 42.1524 49.7898 42.1973 49.8123C42.7202 50.0737 44.4267 51.0288 44.4267 52.34V53.2134ZM7.74667 56.7067H11.24V39.24H7.74667V56.7067ZM56.3973 58.1973C56.561 58.0336 56.6531 57.8116 56.6533 57.58V55.8334C56.6531 55.6018 56.561 55.3798 56.3973 55.2161C56.2335 55.0524 56.0115 54.9603 55.78 54.96H44.277C44.0958 55.4705 43.7611 55.9124 43.3188 56.2251C42.8765 56.5378 42.3483 56.7061 41.8067 56.7067C41.7492 56.7067 41.6918 56.7011 41.6354 56.6899L32.9021 54.9432C32.81 54.9248 32.7215 54.8916 32.6401 54.845L26.5267 51.3516C26.427 51.2948 26.3394 51.2189 26.269 51.1282C26.1986 51.0375 26.1468 50.9339 26.1166 50.8231C26.0863 50.7124 26.0781 50.5968 26.0925 50.4829C26.107 50.3691 26.1437 50.2591 26.2007 50.1595C26.2576 50.0598 26.3337 49.9723 26.4244 49.9021C26.5152 49.8318 26.619 49.7802 26.7297 49.75C26.8405 49.7199 26.9561 49.7119 27.07 49.7265C27.1838 49.7411 27.2937 49.778 27.3933 49.8351L33.3836 53.2581L41.878 54.9572C42.0963 54.9389 42.2998 54.8392 42.4482 54.6781C42.5967 54.5169 42.6792 54.3058 42.6795 54.0867V52.3667C42.5964 52.1487 42.023 51.6916 41.4793 51.4071L32.8224 48.8099C32.6988 48.7728 32.5851 48.7088 32.4892 48.6226C30.1283 46.4986 23.2779 40.9867 19.9733 40.9867H12.9867V54.96H15.6067C15.8524 54.96 16.9656 55.1674 24.8461 56.7232C28.7852 57.501 33.242 58.3809 33.7868 58.4534H55.78C56.0115 58.4531 56.2335 58.361 56.3973 58.1973Z" fill="#FF444F"/>
</svg>

<svg xmlns="http://www.w3.org/2000/svg" width="64" height="64" fill="none"  xmlns:v="https://vecta.io/nano"><path fill-rule="evenodd" d="M43.914 8V6a1 1 0 0 0-1-1 1 1 0 0 0-1 1v2a1 1 0 0 0 1 1 1 1 0 0 0 1-1zm7.675 18.294a10.38 10.38 0 0 1-2.962 3.332.54.54 0 0 0-.216.442v1.335a3 3 0 0 1 1.488 2.873 3 3 0 0 1-1.988 2.552V38c-.001.795-.317 1.558-.88 2.12s-1.325.879-2.12.88h-4c-.795-.001-1.558-.317-2.12-.88s-.879-1.325-.88-2.12v-1.171a3 3 0 0 1-1.988-2.552 3 3 0 0 1 1.488-2.873v-1.335c.002-.085-.017-.169-.054-.246a.54.54 0 0 0-.16-.195c-1.328-.956-2.409-2.215-3.154-3.671s-1.134-3.07-1.133-4.706c-.011-5.574 4.411-10.172 9.857-10.25 1.311-.02 2.614.222 3.83.714s2.322 1.222 3.251 2.148a10.38 10.38 0 0 1 3.031 8.164 10.38 10.38 0 0 1-1.291 4.267zm-8.792-13.293c-4.357.062-7.895 3.761-7.886 8.246-.002 1.318.31 2.618.909 3.792s1.47 2.189 2.539 2.96a2.54 2.54 0 0 1 1.052 2.069V31h7v-.931c-.001-.404.093-.803.277-1.163s.45-.671.777-.908a8.38 8.38 0 0 0 3.421-6.13 8.38 8.38 0 0 0-2.441-6.582C46.976 13.823 44.986 13 42.911 13l-.058.001h-.057zM40.911 39h4a1 1 0 0 0 1-1v-1h-6v1a1 1 0 0 0 1 1zm-2-4h8a1 1 0 0 0 1-1 1 1 0 0 0-1-1h-8a1 1 0 0 0-1 1 1 1 0 0 0 1 1zm7.262-16.505a4.52 4.52 0 0 0-1.641-1.178h0a1 1 0 0 1-.547-1.304 1 1 0 0 1 1.304-.547c.91.38 1.722.961 2.375 1.699s1.131 1.615 1.398 2.564a1 1 0 0 1-.696 1.219 1 1 0 0 1-1.229-.677 4.52 4.52 0 0 0-.964-1.775zm-13.101-5.039a1 1 0 0 1-.567.176c-.247 0-.486-.091-.669-.257l-1.486-1.338a1 1 0 0 1-.074-1.412 1 1 0 0 1 1.413-.074l1.486 1.338a1 1 0 0 1 .265 1.102 1 1 0 0 1-.367.466zm-4.185 9.012l-1.989.209a1 1 0 0 0-.677.363 1 1 0 0 0-.22.737 1 1 0 0 0 .368.675 1 1 0 0 0 .738.214l1.989-.209a1 1 0 0 0 .884-1.098 1 1 0 0 0-1.093-.891zm29.831 2.198l-1.989-.209a1 1 0 0 1-.677-.363 1 1 0 0 1-.219-.736 1 1 0 0 1 .368-.674 1 1 0 0 1 .737-.215l1.989.209a1 1 0 0 1 .885 1.099 1 1 0 0 1-1.094.89zm-4.734-11.291l1.486-1.338a1 1 0 0 0 .074-1.412 1 1 0 0 0-1.412-.074l-1.486 1.338a1 1 0 0 0-.065 1.404 1 1 0 0 0 1.403.082zm-9.558 39.838H55.78c.695.001 1.361.277 1.852.768s.767 1.157.768 1.852v1.747c-.001.695-.277 1.361-.768 1.852s-1.157.767-1.852.768H33.746c-.246 0-1.359-.207-9.239-1.763l-8.941-1.73h-2.579v.873c0 .232-.092.454-.256.618s-.386.256-.618.256h-5.24c-.232 0-.454-.092-.618-.256S6 57.812 6 57.58V38.367c0-.232.092-.454.256-.617s.386-.256.618-.256h5.24c.232 0 .454.092.618.256s.256.386.256.617v.873h6.987c1.998 0 4.924 1.378 8.698 4.095 2.364 1.702 4.297 3.38 4.838 3.858l8.548 2.564c.048.014.095.033.14.056.523.261 2.229 1.216 2.229 2.528v.873zm-36.68 3.493h3.493V39.24H7.747v17.467zm48.651 1.491c.164-.164.256-.386.256-.617v-1.747c0-.232-.092-.454-.256-.617s-.386-.256-.617-.256H44.277c-.181.511-.516.952-.958 1.265s-.971.481-1.512.482a.88.88 0 0 1-.171-.017l-8.733-1.747a.87.87 0 0 1-.262-.098l-6.113-3.493c-.1-.057-.187-.133-.258-.223a.87.87 0 0 1-.152-.305c-.03-.111-.038-.226-.024-.34s.051-.224.108-.323.133-.187.224-.257.195-.122.305-.152.226-.038.34-.023.224.051.323.109l5.99 3.423 8.494 1.699c.218-.018.422-.118.57-.279s.231-.372.231-.591v-1.72c-.083-.218-.656-.675-1.2-.96l-8.657-2.597c-.124-.037-.237-.101-.333-.187-2.361-2.124-9.211-7.636-12.516-7.636h-6.987V54.96h2.62c.246 0 1.359.207 9.239 1.763l8.941 1.73H55.78c.231 0 .453-.092.617-.256z" fill="#ff444f"/></svg>
